!!!!SEGMENT: pl-kk--kk-i-201--003_anonim--virginis-protes.krn
!!!id: 16xx:757
!!!COM: Anonim
!!!COM-rism: pe30004985
!!!CDT:
!!!CNT:
!!!OTL: Virginis protes
!!!PDT:
!!!SMS-siglum: PL-Kk
!!!SMS-shelfmark: Kk.I.201
!!!NIFC-rismID: 1001143743
!!!URL-scan: http://repozytorium.nifc.pl/skany/pl-kk-nut--i-201
!!!ONB-nifc: UWAGA: utwory w zbiorze: 1. Jesu Redemptor omnium, 2. Jesu corona celsior, 3. Virginis protes, 4. Virginis partum canimus, 5. Fortem virili pectore
!!!SMS-variant:
!!!SMS-altvar:
**kern	**text	**text	**text
*I"Baſso Ripieno.	*	*	*
*I'B	*	*	*
*clefF4	*	*	*
*k[]	*	*	*
*M3/2	*	*	*
=1	=1	=1	=1
!LO:TX:t=P:problem:2\right:global	!	!	!
2D/	1.-Vir	2.Haec	5.Sit
4D/	-gi-	e-	de-
4C/	-nis	-nim	-cus
2BBn/	pro-	pal-	Pat-
=2	=2	=2	=2
(2.AA/	-tes	-mae	-ri,
4BB/	.	.	.
2C#X/)	.	.	.
=3	=3	=3	=3
*2\right	*	*	*
2.D\	O-	dup-	ge-
4E\	-pi-	-li-	-ni-
(4F\	-fex-	-cis,	-tae-
4G\)	.	.	.
=4	=4	=4	=4
2A\	-que	be-	-que
!LO:TX:b:t=>6	!	!	!
1B-X\	Mat-	-a-	Pro-
=5	=5	=5	=5
1.A\,	-ris!	-ta	-li,
=6	=6	=6	=6
2F\	Vir-	Sor-	et
2.En\	-go	-te,	Ti-
4E\	quem	dum	-bi
=7	=7	=7	=7
1F\	geſ-	geſ-	Com-
2F,\	-sit	-tit	-par
=8	=8	=8	=8
2.BB-X/	pe-	ra-	u-
4C/	-pe-	-gi-	-tri-
(4D/	-rit-	-tem	-us-
4E/)	.	.	.
=9	=9	=9	=9
2F,\	-que	do-	-q(ue)
(2BB-X/	Vir-	-na-	Vir-
2C/)	.	.	.
=10	=10	=10	=10
1.FF/	-go!	-re	-tus
==	==	==	==
*-	*-	*-	*-
!!!RDF**kern: > = above
!!!RDF**kern: < = below
!!!EED: Leszek Kubiak
!!!EST: 2021-02-18
!!!ENC:Kamil Watkowski
!!!END:2021-02-15
